2 Export/Icons/Brands/Microsoft Edge.svg

<svg xmlns="http://www.w3.org/2000/svg" xmlns:xlink="http://www.w3.org/1999/xlink" width="24" height="24" viewBox="0 0 24 24">
  <defs>
    <path id="microsoft-edge-a" d="M20.74,13.6875 L9.23725,13.6875 C9.23725,14.121 9.30175,14.51475 9.43375,14.86875 C9.57475,15.2175 9.757,15.5295 9.991,15.8025 C10.2235,16.0755 10.49725,16.30875 10.8175,16.506 C11.12725,16.7025 11.46475,16.866 11.82475,16.992 C12.18175,17.12175 12.556,17.217 12.93475,17.27925 C13.757914,17.409702 14.5969861,17.4031131 15.418,17.25975 C15.841,17.181 16.25125,17.07675 16.65625,16.94475 C17.06125,16.812 17.452,16.6545 17.8435,16.4745 C18.23725,16.2945 18.63625,16.098 19.04725,15.87825 L19.04725,19.692 C18.58825,19.917 18.13825,20.106 17.68825,20.26875 C17.23825,20.42625 16.78825,20.56425 16.33075,20.67375 C15.87175,20.78625 15.40825,20.871 14.932,20.92125 C14.4444952,20.9735411 13.9545512,21 13.46425,21 C12.78925,21 12.13675,20.92125 11.50975,20.76675 C10.8956309,20.6171995 10.3023744,20.3922406 9.7435,20.097 C9.1965545,19.8074166 8.68808667,19.4503804 8.23,19.03425 C7.30509815,18.1979737 6.63120283,17.12078 6.28375,15.92325 C6.10291014,15.2866006 6.01302,14.6275745 6.01675,13.96575 C6.01675,13.22625 6.118,12.52275 6.3205,11.85075 C6.526,11.17575 6.8155,10.563 7.198,10.0005 C7.58239118,9.43233946 8.05187946,8.92667833 8.59,8.50125 C9.15174912,8.05688952 9.77531397,7.69684904 10.441,7.4325 C10.0620195,7.81143774 9.76510697,8.26433779 9.56875,8.763 C9.36393714,9.25562602 9.22864083,9.77434602 9.16675,10.30425 L15.57325,10.30425 C15.57325,9.657 15.50875,9.0945 15.37675,8.61075 C15.24475,8.127 15.03325,7.725 14.7385,7.407 C14.446,7.08675 14.06875,6.8445 13.6045,6.687 C13.141,6.5265 12.58075,6.4455 11.926,6.4455 C11.152,6.4455 10.37875,6.558 9.6055,6.79125 C8.83225,7.01625 8.098,7.3395 7.4005,7.7475 C6.703,8.16075 6.06175,8.6475 5.47675,9.204 C4.89175,9.7665 4.39975,10.37175 4,11.0265 C4.08394323,10.2829871 4.24712014,9.55057676 4.48675,8.84175 C4.72,8.14725 5.029,7.5 5.401,6.9 C5.7700708,6.31187733 6.20818462,5.77002622 6.706,5.286 C7.20325,4.80225 7.7545,4.386 8.365,4.0485 C8.9755,3.71175 9.622,3.43875 10.3255,3.255 C11.059832,3.08634904 11.8108006,3.00081158 12.56425,3 C13.0255,3 13.48375,3.042 13.942,3.12375 C14.401,3.2085 14.848,3.321 15.2845,3.46725 C16.15,3.765 16.92325,4.18125 17.60425,4.71 C18.2701731,5.22699155 18.8492208,5.84705628 19.3195,6.54675 C19.7845,7.24125 20.1355,8.00925 20.377,8.844 C20.61925,9.6795 20.743,10.54875 20.743,11.45175 L20.743,13.6875 L20.74,13.6875 Z"/>
  </defs>
  <g fill="none" fill-rule="evenodd">
    <polygon points="0 0 24 0 24 24 0 24"/>
    <mask id="microsoft-edge-b" fill="#fff">
      <use xlink:href="#microsoft-edge-a"/>
    </mask>
    <use fill="#000" xlink:href="#microsoft-edge-a"/>
    <g fill="#000" mask="url(#microsoft-edge-b)">
      <rect width="24" height="24"/>
    </g>
  </g>
</svg>

<svg xmlns="http://www.w3.org/2000/svg" xmlns:xlink="http://www.w3.org/1999/xlink" width="24" height="24" viewBox="0 0 24 24">
  <defs>
    <path id="microsoft-edge-a" d="M20.74 13.688H9.237c0 .433.065.827.197 1.18a3.343 3.343 0 0 0 1.384 1.638c.31.197.647.36 1.007.486.357.13.731.225 1.11.287.823.13 1.662.124 2.483-.02a9.72 9.72 0 0 0 1.238-.314c.405-.133.796-.29 1.188-.47.393-.18.792-.377 1.203-.597v3.814c-.459.225-.909.414-1.359.577-.45.157-.9.295-1.357.405-.46.112-.923.197-1.399.247-.488.053-.977.079-1.468.079a8.146 8.146 0 0 1-1.954-.233 7.663 7.663 0 0 1-1.767-.67 7.402 7.402 0 0 1-1.513-1.063 6.718 6.718 0 0 1-2.213-5.068c0-.74.101-1.443.303-2.115A6.754 6.754 0 0 1 7.199 10 6.69 6.69 0 0 1 8.59 8.5a7.365 7.365 0 0 1 1.851-1.068 3.905 3.905 0 0 0-.872 1.33 5.753 5.753 0 0 0-.402 1.541h6.406c0-.647-.064-1.21-.196-1.693-.132-.484-.344-.886-.639-1.204a2.662 2.662 0 0 0-1.133-.72c-.464-.16-1.024-.242-1.679-.242-.774 0-1.547.113-2.32.346a9.76 9.76 0 0 0-2.205.956c-.698.414-1.34.9-1.924 1.457A9.115 9.115 0 0 0 4 11.026a10.5 10.5 0 0 1 .487-2.184A9.292 9.292 0 0 1 5.4 6.9c.37-.588.807-1.13 1.305-1.614a7.755 7.755 0 0 1 1.659-1.237 8.47 8.47 0 0 1 1.96-.794A10.05 10.05 0 0 1 12.566 3a7.8 7.8 0 0 1 1.377.124c.459.084.906.197 1.342.343a7.993 7.993 0 0 1 2.32 1.243 7.915 7.915 0 0 1 1.716 1.837 8.196 8.196 0 0 1 1.057 2.297c.242.836.366 1.705.366 2.608v2.236h-.003z"/>
  </defs>
  <g fill="none" fill-rule="evenodd">
    <polygon points="0 0 24 0 24 24 0 24"/>
    <mask id="microsoft-edge-b" fill="#fff">
      <use xlink:href="#microsoft-edge-a"/>
    </mask>
    <use fill="#000" xlink:href="#microsoft-edge-a"/>
    <g fill="#000" mask="url(#microsoft-edge-b)">
      <rect width="24" height="24"/>
    </g>
  </g>
</svg>
